icons/svg/hand-pointing-right.svg

﻿<?xml version="1.0" encoding="utf-8"?>
<!DOCTYPE svg PUBLIC "-//W3C//DTD SVG 1.1//EN" "http://www.w3.org/Graphics/SVG/1.1/DTD/svg11.dtd">
<svg xmlns="http://www.w3.org/2000/svg" xmlns:xlink="http://www.w3.org/1999/xlink" version="1.1" baseProfile="full" width="24" height="24" viewBox="0 0 24.00 24.00" enable-background="new 0 0 24.00 24.00" xml:space="preserve">
	<path fill="#000000" fill-opacity="1" stroke-width="0.2" stroke-linejoin="round" d="M 21.0006,8.99999C 21.5529,8.99999 22.0006,9.44771 22.0006,9.99999C 22.0006,10.5523 21.5529,11 21.0006,11L 16.5274,11L 16.398,12.2097L 14.2037,17.1461C 13.9826,17.648 13.4663,18 12.864,18L 8.5,18C 7.69706,18 7.00057,17.2727 7.00057,16.5L 7.00057,9.99996C 7.00057,9.61364 7.16349,9.26367 7.42676,9.01033L 11.6275,4.10066L 12.3984,4.83906C 12.5962,5.02872 12.7184,5.29121 12.7184,5.58097L 12.6944,5.80216L 11.0006,8.99996L 21.0006,8.99999 Z M 2,18L 2.00057,9.99996L 5.00057,9.99996L 5.00057,18L 2,18 Z "/>
</svg>

<svg xmlns="http://www.w3.org/2000/svg" version="1.1" baseProfile="full" width="24" height="24" viewBox="0 0 24.00 24.00" xml:space="preserve"><path fill="#000" fill-opacity="1" stroke-width=".2" stroke-linejoin="round" d="M21 9c.553 0 1 .448 1 1s-.447 1-1 1h-4.473l-.13 1.21-2.193 4.936c-.22.502-.738.854-1.34.854H8.5c-.803 0-1.5-.727-1.5-1.5V10c0-.386.163-.736.427-.99l4.2-4.91.77.74c.2.19.32.45.32.74l-.023.222L11 9h10zM2 18v-8h3v8H2z"/></svg>
